X: 39401
T: Tap Room, The
R: reel
M: 4/4
K: Edorian
|:B<e e>f e2 d>B|d2 f>d e>c d>A|B<e e>f e2 d>B|1 A<B d>F E2E2:|2 A<B d>F E2 D>E||
|:F2 F>E D>E F<A|B2 B>A B>d e<f|d>c d>A B>e e<f|1 d>c d>F E2 D>E:|2 d>c d>F E2E2||

